X:3
T:Speak Low
C:Kurt Weill & Ogden Nash
L:1/4
M:C
I:linebreak $
K:F
"F#o" C S||"Gm" A4 |"C7" z2 (3G D G |"Gm" A4 |"C7" z2 (3G D G |"Gm" A2 (3G D G |"C7" A3 G |
"Cm" d3 c |"F7" d3 A Ox/||$[K:Ab]"Bbm" c4 |"Eb7" z2 (3B F B |"Bbm" c4 |
"Eb7" (3z B c (3B F G ||[K:F]"Am" A2-"Dm" (3A E F |"Gm" G2-"C7" (3G F E ||1"F6" D2 D2 :|2$"F6" F4 |
z4 ||[K:Eb]"Fm" (3e d c e2 | z2 z A |"Db7" G2 F2 | z2 z F |"Eb" (3d c B d2 | z2 z G |"Db7" F4 ||
[K:F]"C7" E3 "_D.S. al Coda" C ||$Ox/"Bbm" c4 |"Eb7" z2 (3B F G |"Am" A4 |"Dm" z2 (3A B c |
"Gm" d d2 d |"C+" d d2 d |"F6" d4 |]

